X:289
T:Danza de La Panadera
R:Danza
C:Tradicional
S:Msica Tradicional Asturiana, (C) Tello & Tito. Asturies, 2001.
S:http://pagina.de/MusTradAst <telloytito@asturies.org>
N:Versin 1
A:Asturies
O:Teberga
Z:DyC en Teberga
M:3/8
L:1/8
Q:3/8=50
K:F
|: c2 c|cdc|BAB|BAB|c3|c2 c|cdc|BAc|BAG|
[1 F3|A2 c|BAG|F3|A2 B|cdc|BAc|BAG|F3 :|
